layout/left-panel/icons/menu-round.svg

<svg fill="none" height="24" viewBox="0 0 24 24" width="24" xmlns="http://www.w3.org/2000/svg"><g fill="#f4f4f7"><path d="m8 6.9834c-.55228 0-1 .44771-1 1 0 .55228.44772 1 1 1h8c.5523 0 1-.44772 1-1 0-.55229-.4477-1-1-1z"/><path d="m7 12c0-.5523.44772-1 1-1h8c.5523 0 1 .4477 1 1s-.4477 1-1 1h-8c-.55228 0-1-.4477-1-1z"/><path d="m8 15.017c-.55228 0-1 .4477-1 1s.44772 1 1 1h8c.5523 0 1-.4477 1-1s-.4477-1-1-1z"/><path clip-rule="evenodd" d="m22 12c0 5.5228-4.4772 10-10 10-5.52285 0-10-4.4772-10-10 0-5.52285 4.47715-10 10-10 5.5228 0 10 4.47715 10 10zm-2 0c0 4.4183-3.5817 8-8 8-4.41828 0-8-3.5817-8-8 0-4.41828 3.58172-8 8-8 4.4183 0 8 3.58172 8 8z" fill-rule="evenodd"/></g></svg>

<svg
  width="24"
  height="24"
  viewBox="0 0 24 24"
  fill="none"
  xmlns="http://www.w3.org/2000/svg"
>
  <path
    d="M8 6.9834C7.44772 6.9834 7 7.43111 7 7.9834C7 8.53568 7.44772 8.9834 8 8.9834H16C16.5523 8.9834 17 8.53568 17 7.9834C17 7.43111 16.5523 6.9834 16 6.9834H8Z"
    fill="#f4f4f7"
  />
  <path
    d="M7 12C7 11.4477 7.44772 11 8 11H16C16.5523 11 17 11.4477 17 12C17 12.5523 16.5523 13 16 13H8C7.44772 13 7 12.5523 7 12Z"
    fill="#f4f4f7"
  />
  <path
    d="M8 15.017C7.44772 15.017 7 15.4647 7 16.017C7 16.5693 7.44772 17.017 8 17.017H16C16.5523 17.017 17 16.5693 17 16.017C17 15.4647 16.5523 15.017 16 15.017H8Z"
    fill="#f4f4f7"
  />
  <path
    fill-rule="evenodd"
    clip-rule="evenodd"
    d="M22 12C22 17.5228 17.5228 22 12 22C6.47715 22 2 17.5228 2 12C2 6.47715 6.47715 2 12 2C17.5228 2 22 6.47715 22 12ZM20 12C20 16.4183 16.4183 20 12 20C7.58172 20 4 16.4183 4 12C4 7.58172 7.58172 4 12 4C16.4183 4 20 7.58172 20 12Z"
    fill="#f4f4f7"
  />
</svg>
